X: 1064
T: Blue Bonnet's Jig
R:double jig
N:"" "Irish Version" "collected by F.O'Neill"
B:O'Neill's 1064
Z:Transcribed by henrik.norbeck@mailbox.swipnet.se
M:6/8
L:1/8
K:A
ABA c2e|aba {b}a2e|gag fgf|ecA TB2e|
ABA c2e|aba {b}a2e|Tfed cde|(f<a)c TB2A:|
Ace ece|Tfed cBA|Ace efa|ABc TB2A|
Ace ece|Tfed cBA|agf ece|(f<a)c TB2A:|


